configs/network-logos/arbitrum-nova-dark.svg

<svg width="95" height="24" viewBox="0 0 95 24" fill="none" xmlns="http://www.w3.org/2000/svg">
<g clip-path="url(#clip0_11424_10322)">
<path d="M30.8085 6.18083C31.0293 6.18083 31.221 6.22477 31.3733 6.31834C31.5257 6.41191 31.678 6.58878 31.8252 6.85409L34.7385 12.1455C34.7681 12.2042 34.7727 12.2533 34.7579 12.2927C34.743 12.332 34.6991 12.3514 34.6301 12.3514H33.5101C33.4119 12.3514 33.3429 12.3121 33.3087 12.2385L32.6845 11.1036H28.5428L27.9334 12.2385C27.8941 12.3172 27.8256 12.3514 27.732 12.3514H26.5875C26.5087 12.3514 26.4648 12.332 26.45 12.2927C26.4351 12.2533 26.4403 12.2042 26.4694 12.1455L29.3632 6.84953C29.5104 6.58422 29.6531 6.40735 29.7957 6.31377C29.9384 6.2202 30.1004 6.17627 30.287 6.17627H30.8079V6.1814L30.8085 6.18083ZM29.0939 10.0766H32.1299L30.7297 7.49255C30.7052 7.45318 30.6755 7.42865 30.6316 7.42865H30.5774C30.538 7.42865 30.5038 7.44805 30.4793 7.49255L29.0939 10.0766Z" fill="white"/>
<path d="M41.155 6.18099C41.8328 6.18099 42.3144 6.33333 42.6094 6.63801C42.9043 6.94269 43.0515 7.39457 43.0515 7.99423V8.49518C43.0515 9.00126 42.9483 9.39894 42.7423 9.69392C42.5358 9.9889 42.202 10.1755 41.7353 10.2588L43.2433 12.1256C43.2729 12.1553 43.2826 12.1992 43.2678 12.258C43.2581 12.3168 43.209 12.3465 43.1251 12.3465H41.9903C41.9116 12.3465 41.8625 12.3368 41.8328 12.3219C41.8032 12.3025 41.7741 12.2729 41.7444 12.2335L40.3494 10.4008H37.5V12.1547C37.5 12.2826 37.4361 12.3465 37.3083 12.3465H36.3555C36.218 12.3465 36.1541 12.2826 36.1541 12.1547V6.44573C36.1541 6.26886 36.2425 6.18042 36.4194 6.18042H41.1556L41.155 6.18099ZM37.5046 9.32534H40.88C41.1795 9.32534 41.3912 9.26144 41.5139 9.13363C41.6366 9.00583 41.7005 8.80956 41.7005 8.54425V8.17567C41.7005 7.91036 41.6366 7.71408 41.5139 7.58628C41.3912 7.45847 41.1795 7.39457 40.88 7.39457H37.6181C37.5394 7.39457 37.5051 7.4288 37.5051 7.50241V9.32534H37.5046Z" fill="white"/>
<path d="M50.426 6.18091C51.0302 6.18091 51.4627 6.30358 51.7183 6.54435C51.9739 6.78513 52.1017 7.14858 52.1017 7.63526V8.05805C52.1017 8.5493 51.9151 8.92244 51.5369 9.17806C51.9397 9.4137 52.1462 9.79198 52.1462 10.3129V10.8241C52.1462 11.0598 52.1217 11.2714 52.0675 11.458C52.0133 11.6446 51.93 11.8066 51.8073 11.9396C51.6846 12.0719 51.5272 12.1752 51.3257 12.2442C51.1243 12.3133 50.8784 12.3521 50.584 12.3521H45.3469C45.17 12.3521 45.0815 12.2636 45.0815 12.0868V6.44679C45.0815 6.26992 45.17 6.18148 45.3469 6.18148H50.4265L50.426 6.18091ZM46.4321 8.74557H50.0477C50.3427 8.74557 50.5389 8.70164 50.6468 8.6132C50.7546 8.52477 50.8043 8.39696 50.8043 8.22522V7.92568C50.8043 7.74367 50.7552 7.6113 50.6519 7.52286C50.5486 7.43956 50.3815 7.39506 50.1555 7.39506H46.5496C46.4709 7.39506 46.4366 7.43443 46.4366 7.50803V8.74614H46.4315L46.4321 8.74557ZM46.4321 9.70354V11.0153C46.4321 11.094 46.4714 11.1282 46.545 11.1282H50.1607C50.3963 11.1282 50.5635 11.0843 50.6616 11.0004C50.7598 10.9171 50.8139 10.7796 50.8139 10.5925V10.2581C50.8139 10.0761 50.7597 9.93861 50.6519 9.84561C50.5441 9.75204 50.3427 9.70297 50.0477 9.70297H46.4321V9.70354Z" fill="white"/>
<path d="M55.4321 6.18091C55.5599 6.18091 55.6238 6.24481 55.6238 6.37262V12.1552C55.6238 12.283 55.5599 12.3469 55.4321 12.3469H54.4792C54.3417 12.3469 54.2778 12.283 54.2778 12.1552V6.37262C54.2778 6.24481 54.3469 6.18091 54.4792 6.18091H55.4321Z" fill="white"/>
<path d="M64.6682 6.18091C64.8057 6.18091 64.8696 6.24481 64.8696 6.37262V7.23701C64.8696 7.37452 64.8006 7.43842 64.6682 7.43842H61.9021V12.1547C61.9021 12.2825 61.8382 12.3464 61.7104 12.3464H60.7473C60.6195 12.3464 60.5556 12.2825 60.5556 12.1547V7.43842H57.7895C57.652 7.43842 57.5881 7.36938 57.5881 7.23701V6.37262C57.5881 6.24481 57.6572 6.18091 57.7895 6.18091H64.6676H64.6682Z" fill="white"/>
<path d="M71.6399 6.18099C72.3177 6.18099 72.7992 6.33333 73.0942 6.63801C73.3892 6.94269 73.5364 7.39457 73.5364 7.99423V8.49518C73.5364 9.00126 73.4331 9.39894 73.2272 9.69392C73.0206 9.9889 72.6868 10.1755 72.2201 10.2588L73.7281 12.1256C73.7578 12.1553 73.7675 12.1992 73.7526 12.258C73.7429 12.3168 73.6939 12.3465 73.61 12.3465H72.4752C72.3964 12.3465 72.3474 12.3368 72.3177 12.3219C72.288 12.3025 72.2589 12.2729 72.2293 12.2335L70.8342 10.4008H67.9849V12.1547C67.9849 12.2826 67.921 12.3465 67.7932 12.3465H66.8403C66.7028 12.3465 66.6389 12.2826 66.6389 12.1547V6.44573C66.6389 6.26886 66.7273 6.18042 66.9042 6.18042H71.6404L71.6399 6.18099ZM67.9946 9.32534H71.37C71.6695 9.32534 71.8812 9.26144 72.0039 9.13363C72.1265 9.00583 72.1905 8.80956 72.1905 8.54425V8.17567C72.1905 7.91036 72.1265 7.71408 72.0039 7.58628C71.8812 7.45847 71.6695 7.39457 71.37 7.39457H68.1081C68.0294 7.39457 67.9951 7.4288 67.9951 7.50241V9.32534H67.9946Z" fill="white"/>
<path d="M76.5971 6.18091C76.7249 6.18091 76.7888 6.24481 76.7888 6.37262V9.89011C76.7888 10.1258 76.8082 10.3226 76.8476 10.4749C76.8869 10.6324 76.9508 10.7551 77.0393 10.8435C77.1277 10.9371 77.2458 11.001 77.3982 11.0352C77.5505 11.0746 77.7371 11.094 77.9681 11.094H80.4096C80.6406 11.094 80.8272 11.0746 80.9796 11.0352C81.1319 10.9959 81.25 10.932 81.3384 10.8435C81.4269 10.7499 81.4908 10.6273 81.525 10.4749C81.5592 10.3175 81.5792 10.1263 81.5792 9.89011V6.37262C81.5792 6.24481 81.6431 6.18091 81.7709 6.18091H82.734C82.8618 6.18091 82.9257 6.24481 82.9257 6.37262V10.0231C82.9257 10.4458 82.8818 10.8041 82.7934 11.1037C82.7049 11.3987 82.5623 11.6394 82.366 11.826C82.1697 12.0126 81.9141 12.1455 81.5998 12.2288C81.2854 12.3121 80.9071 12.3515 80.4598 12.3515H77.9197C77.4723 12.3515 77.0941 12.3121 76.7848 12.2288C76.4756 12.1455 76.22 12.0126 76.0231 11.826C75.8268 11.6394 75.6842 11.3987 75.5906 11.1037C75.4971 10.8087 75.4531 10.4453 75.4531 10.0231V6.37262C75.4531 6.24481 75.5222 6.18091 75.6545 6.18091H76.5977H76.5971Z" fill="white"/>
<path d="M86.7125 6.18091C86.8403 6.18091 86.9533 6.19061 87.0469 6.20544C87.1404 6.22484 87.2237 6.25451 87.2928 6.30871C87.3618 6.35778 87.4251 6.42682 87.4845 6.51012C87.5387 6.59342 87.5974 6.70639 87.6562 6.84903L89.4889 11.0792C89.5134 11.1334 89.5528 11.1579 89.6115 11.1579H89.7194C89.7781 11.1579 89.8175 11.1334 89.842 11.0792L91.6747 6.84903C91.7334 6.70639 91.7928 6.59342 91.8464 6.51012C91.9006 6.42682 91.9645 6.35778 92.0381 6.30871C92.1071 6.25965 92.1904 6.22541 92.2789 6.20544C92.3725 6.18604 92.4803 6.18091 92.6081 6.18091H93.5512C93.8559 6.18091 94.0624 6.24995 94.1703 6.38745C94.2781 6.52496 94.3278 6.7606 94.3278 7.09494V12.1552C94.3278 12.283 94.2587 12.3469 94.1264 12.3469H93.2272C93.0994 12.3469 93.0354 12.283 93.0354 12.1552V7.55196C93.0354 7.49319 93.0109 7.46353 92.9664 7.46353H92.8877C92.8289 7.46353 92.7895 7.48806 92.7747 7.53256L90.9963 11.4825C90.9272 11.64 90.8536 11.7775 90.78 11.8854C90.7064 11.9932 90.6277 12.0816 90.5444 12.1558C90.4611 12.2248 90.3624 12.2785 90.2545 12.3081C90.1467 12.3378 90.0189 12.3521 89.8711 12.3521H89.4483C89.3011 12.3521 89.1733 12.3372 89.0649 12.3081C88.9571 12.2785 88.8584 12.2294 88.7751 12.1558C88.6918 12.0868 88.6079 11.9938 88.5394 11.8854C88.4658 11.7775 88.3922 11.6446 88.3232 11.4825L86.5448 7.53256C86.5254 7.48349 86.4906 7.46353 86.4318 7.46353H86.3531C86.304 7.46353 86.284 7.49319 86.284 7.55196V12.1552C86.284 12.283 86.2201 12.3469 86.0923 12.3469H85.1931C85.0556 12.3469 84.9917 12.283 84.9917 12.1552V7.09494C84.9917 6.7606 85.0459 6.52496 85.1492 6.38745C85.257 6.24995 85.4636 6.18091 85.7734 6.18091H86.7119H86.7125Z" fill="white"/>
<path d="M27.3646 14.1743C27.4479 14.1743 27.5169 14.1795 27.5711 14.184C27.6253 14.1892 27.6744 14.2034 27.7183 14.228C27.7577 14.2525 27.8016 14.2822 27.8364 14.3215C27.8758 14.3609 27.9197 14.4151 27.9642 14.479L29.9001 17.0191C29.915 17.0437 29.9344 17.0534 29.9692 17.0534H30.0183C30.0479 17.0534 30.0576 17.034 30.0576 16.9992V14.2822C30.0576 14.2034 30.097 14.1692 30.1706 14.1692H30.716C30.7948 14.1692 30.829 14.2086 30.829 14.2822V17.269C30.829 17.4801 30.7896 17.6228 30.716 17.6964C30.6373 17.77 30.5198 17.8094 30.3623 17.8094H29.915C29.8362 17.8094 29.7678 17.8042 29.7136 17.7997C29.6594 17.7951 29.6103 17.7803 29.5709 17.7603C29.5316 17.7409 29.4876 17.7112 29.4483 17.6667C29.4089 17.6273 29.365 17.5731 29.3108 17.5047L27.3703 14.9645C27.3509 14.94 27.3264 14.9303 27.3012 14.9303H27.2522C27.2225 14.9303 27.2128 14.9497 27.2128 14.9845V17.7015C27.2128 17.7803 27.1734 17.8145 27.0998 17.8145H26.5544C26.4756 17.8145 26.4363 17.7751 26.4363 17.7015V14.7146C26.4363 14.5035 26.4756 14.3609 26.5492 14.2873C26.628 14.2137 26.7455 14.1743 26.903 14.1743H27.3646Z" fill="#FF7700"/>
<path d="M35.0781 14.1743C35.3434 14.1743 35.5642 14.1989 35.7513 14.2479C35.9379 14.297 36.0902 14.3757 36.2032 14.4887C36.3213 14.5965 36.4046 14.7392 36.4537 14.9115C36.5079 15.0832 36.5324 15.2949 36.5324 15.5454V16.4394C36.5324 16.6899 36.5079 16.901 36.4537 17.0779C36.3995 17.2548 36.3162 17.3974 36.2032 17.5052C36.0851 17.6131 35.9379 17.6918 35.7513 17.7409C35.5648 17.79 35.3388 17.8145 35.0781 17.8145H33.4668C33.2015 17.8145 32.9807 17.79 32.7936 17.7409C32.6115 17.6918 32.4592 17.6131 32.3417 17.5052C32.2236 17.3974 32.1403 17.2548 32.0861 17.0779C32.0319 16.901 32.0073 16.6899 32.0073 16.4394V15.5454C32.0073 15.2949 32.0319 15.0838 32.0861 14.9115C32.1403 14.7397 32.2236 14.5971 32.3417 14.4887C32.4598 14.3809 32.607 14.297 32.7936 14.2479C32.9756 14.1989 33.2015 14.1743 33.4668 14.1743H35.0781ZM32.8084 16.3852C32.8084 16.5227 32.8181 16.6357 32.8426 16.7241C32.8672 16.8177 32.9014 16.8913 32.9556 16.945C33.0098 16.9992 33.0783 17.0385 33.1667 17.0579C33.2551 17.0825 33.3681 17.0922 33.501 17.0922H35.0484C35.1859 17.0922 35.2943 17.0825 35.3828 17.0579C35.4712 17.0334 35.5402 16.9992 35.5939 16.945C35.6481 16.8907 35.6823 16.8171 35.7068 16.7241C35.7314 16.6306 35.7411 16.5176 35.7411 16.3852V15.6041C35.7411 15.4666 35.7314 15.3537 35.7068 15.2652C35.6823 15.1717 35.6481 15.0981 35.5939 15.0444C35.5397 14.9902 35.4712 14.9508 35.3828 14.9314C35.2943 14.9069 35.1813 14.8972 35.0484 14.8972H33.501C33.3635 14.8972 33.2551 14.9069 33.1667 14.9314C33.0783 14.956 33.0092 14.9902 32.9556 15.0444C32.9014 15.0986 32.8672 15.1722 32.8426 15.2652C32.8181 15.3588 32.8084 15.4718 32.8084 15.6041V16.3852Z" fill="#FF7700"/>
<path d="M37.8635 14.1743C37.8978 14.1743 37.9223 14.1795 37.9371 14.1892C37.952 14.1989 37.9668 14.2188 37.9811 14.2434L39.509 17.0437C39.5187 17.0682 39.5387 17.0779 39.5729 17.0779H39.5974C39.622 17.0779 39.6414 17.0682 39.6562 17.0437L41.1596 14.2434C41.179 14.1994 41.2184 14.1743 41.2777 14.1743H41.9607C42.0001 14.1743 42.0297 14.184 42.0343 14.2086C42.044 14.2331 42.0394 14.2576 42.0195 14.2919L40.3095 17.4214C40.2211 17.5834 40.1378 17.6867 40.0539 17.7409C39.9706 17.7951 39.8719 17.8196 39.7641 17.8196H39.4645C39.327 17.8196 39.2186 17.7951 39.1302 17.7409C39.0417 17.6867 38.9533 17.5834 38.8649 17.4214L37.1406 14.2919C37.1212 14.2576 37.1212 14.2279 37.1258 14.2086C37.1355 14.184 37.16 14.1743 37.2045 14.1743H37.863H37.8635Z" fill="#FF7700"/>
<path d="M44.309 14.1743C44.4414 14.1743 44.5498 14.1989 44.6433 14.2531C44.7318 14.3073 44.8202 14.4105 44.9087 14.5674L46.6329 17.6969C46.6523 17.7312 46.6523 17.7609 46.6477 17.7803C46.638 17.8048 46.6135 17.8145 46.5741 17.8145H45.9111C45.8524 17.8145 45.813 17.7899 45.793 17.7454L45.4244 17.0722H42.9779L42.619 17.7454C42.5945 17.7894 42.5551 17.8145 42.5009 17.8145H41.8231C41.7791 17.8145 41.7495 17.8048 41.7443 17.7803C41.7392 17.7557 41.7392 17.7312 41.7592 17.6969L43.4691 14.5674C43.5576 14.41 43.6409 14.3073 43.7247 14.2531C43.808 14.1989 43.9068 14.1743 44.0146 14.1743H44.3096H44.309ZM43.302 16.4737H45.0952L44.2651 14.9508C44.2502 14.9263 44.2308 14.9166 44.2063 14.9166H44.1766C44.1521 14.9166 44.1327 14.9263 44.1179 14.9508L43.3025 16.4737H43.302Z" fill="#FF7700"/>
<path d="M10.6364 1.48916C10.6951 1.48916 10.7493 1.50399 10.8035 1.53309L19.6221 6.62305C19.7254 6.68182 19.7893 6.79022 19.7893 6.90776V17.0871C19.7893 17.2052 19.7254 17.313 19.6221 17.3718L10.8035 22.4663C10.7545 22.496 10.6957 22.5103 10.6364 22.5103C10.577 22.5103 10.5234 22.4954 10.4692 22.4663L1.65519 17.3764C1.55192 17.3176 1.48802 17.2092 1.48802 17.0917V6.90719C1.48802 6.78908 1.55192 6.68125 1.65519 6.62248L10.4692 1.53252C10.5234 1.50285 10.577 1.48859 10.6364 1.48859M10.6364 0C10.322 0 10.0076 0.0833017 9.72746 0.245911L0.9089 5.33587C0.348611 5.65995 0 6.2596 0 6.90776V17.0871C0 17.7358 0.348611 18.3349 0.9089 18.6641L9.72746 23.7541C10.0076 23.9161 10.322 24 10.6364 24C10.9507 24 11.2651 23.9167 11.5453 23.7541L20.3638 18.6641C20.9287 18.3401 21.2727 17.7404 21.2727 17.0871V6.90776C21.2727 6.25903 20.9241 5.65995 20.3638 5.33073L11.5453 0.240776C11.2651 0.0787372 10.9507 0 10.6364 0Z" fill="#FF7700"/>
<path d="M8.38607 6.78516H7.2364C7.14796 6.78516 7.07436 6.83936 7.04469 6.92266L3.33548 17.0775C3.31095 17.1465 3.36002 17.215 3.43362 17.215H4.5833C4.67173 17.215 4.74534 17.1608 4.77501 17.0775L8.47907 6.91753C8.50874 6.85362 8.45968 6.78516 8.3855 6.78516H8.38607Z" fill="#FF7700"/>
<path d="M9.87988 10.7253C9.84565 10.6368 9.71784 10.6368 9.68817 10.7253L9.08852 12.3662C9.07368 12.4101 9.07368 12.4598 9.08852 12.5088L10.7591 17.083C10.7888 17.1663 10.867 17.2205 10.9508 17.2205H12.1005C12.1741 17.2205 12.2232 17.1515 12.1986 17.083L9.87988 10.7258V10.7253Z" fill="#FF7700"/>
<path d="M10.4007 6.78516H9.25104C9.1626 6.78516 9.089 6.83936 9.05933 6.92266L5.35526 17.0775C5.33072 17.1465 5.37979 17.215 5.4534 17.215H6.60307C6.69151 17.215 6.76511 17.1608 6.79478 17.0775L10.4989 6.91753C10.5234 6.85362 10.4743 6.78516 10.4007 6.78516Z" fill="#FF7700"/>
<path d="M10.8869 7.95939C10.8526 7.87096 10.7248 7.87096 10.6952 7.95939L10.0961 9.60032C10.0813 9.64425 10.0813 9.69389 10.0961 9.74296L12.7737 17.0781C12.8034 17.1614 12.8816 17.2156 12.9654 17.2156H14.1151C14.1887 17.2156 14.2378 17.1465 14.2132 17.0781L10.8875 7.95996L10.8869 7.95939Z" fill="#FF7700"/>
<path d="M17.8384 6.78516H16.6887C16.6003 6.78516 16.5267 6.83936 16.497 6.92266L13.8148 14.2578C13.8 14.3017 13.8 14.3513 13.8148 14.4004L14.4145 16.0413C14.4487 16.1298 14.5765 16.1298 14.6062 16.0413L17.932 6.92323C17.9565 6.85419 17.9075 6.78573 17.8384 6.78573V6.78516Z" fill="#FF7700"/>
<path d="M13.4069 13.2753C13.4412 13.3637 13.569 13.3637 13.5986 13.2753L15.9174 6.92266C15.9419 6.85362 15.8929 6.78516 15.8193 6.78516H14.6696C14.5811 6.78516 14.5075 6.83936 14.4779 6.92266L12.8073 11.4968C12.7924 11.5408 12.7924 11.5904 12.8073 11.6395L13.4064 13.2753H13.4069Z" fill="#FF7700"/>
</g>
<defs>
<clipPath id="clip0_11424_10322">
<rect width="95" height="24" fill="white"/>
</clipPath>
</defs>
</svg>

<svg xmlns="http://www.w3.org/2000/svg" fill="none" viewBox="0 0 95 24">
  <g clip-path="url(#arbitrum-nova-dark_svg__a)">
    <path fill="#fff" d="M30.808 6.18c.221 0 .413.045.565.138.153.094.305.27.452.536l2.914 5.292c.03.058.034.107.019.147-.015.039-.059.058-.128.058h-1.12c-.098 0-.167-.039-.201-.113l-.624-1.134h-4.142l-.61 1.135c-.039.078-.107.112-.201.112h-1.145c-.078 0-.122-.019-.137-.058-.015-.04-.01-.089.02-.147l2.893-5.296c.147-.266.29-.443.433-.536a.87.87 0 0 1 .491-.138h.52v.005h.002Zm-1.714 3.897h3.036l-1.4-2.584c-.025-.04-.055-.064-.098-.064h-.055c-.039 0-.073.02-.098.064l-1.385 2.584Zm12.061-3.896c.678 0 1.16.152 1.454.457.295.305.442.757.442 1.356v.501c0 .506-.103.904-.309 1.199-.206.295-.54.481-1.007.565l1.508 1.867c.03.03.04.073.025.132-.01.059-.059.089-.143.089H41.99a.367.367 0 0 1-.157-.025.37.37 0 0 1-.089-.088L40.35 10.4H37.5v1.754c0 .128-.064.192-.192.192h-.953c-.137 0-.2-.064-.2-.192v-5.71c0-.176.087-.265.264-.265h4.737l-.001.001Zm-3.65 3.144h3.375c.3 0 .511-.064.634-.191.123-.128.186-.324.186-.59v-.368c0-.266-.063-.462-.186-.59-.123-.128-.335-.191-.634-.191h-3.262c-.079 0-.113.034-.113.107v1.823ZM50.426 6.18c.604 0 1.037.124 1.292.364.256.241.384.605.384 1.091v.423c0 .491-.187.864-.565 1.12.403.236.61.614.61 1.135v.511c0 .236-.025.447-.08.634a1.18 1.18 0 0 1-.26.482c-.122.132-.28.235-.481.304a2.29 2.29 0 0 1-.742.108h-5.237c-.177 0-.266-.088-.266-.265v-5.64c0-.177.089-.266.266-.266h5.08-.001Zm-3.994 2.566h3.616c.295 0 .49-.044.599-.133.108-.088.157-.216.157-.388v-.3c0-.181-.049-.314-.152-.402-.103-.083-.27-.128-.496-.128H46.55c-.08 0-.113.04-.113.113v1.238h-.005Zm0 .958v1.311c0 .079.04.113.113.113h3.616c.235 0 .402-.044.5-.128.099-.083.153-.22.153-.408v-.334c0-.182-.054-.32-.162-.412-.108-.094-.31-.143-.604-.143h-3.616Zm9-3.524c.128 0 .192.065.192.193v5.782c0 .128-.064.192-.192.192h-.953c-.137 0-.201-.064-.201-.192V6.373c0-.128.069-.192.201-.192h.953Zm9.236 0c.138 0 .202.065.202.193v.864c0 .138-.07.201-.202.201h-2.766v4.717c0 .128-.064.191-.192.191h-.963c-.127 0-.191-.063-.191-.191V7.438h-2.767c-.137 0-.2-.069-.2-.201v-.864c0-.128.068-.192.2-.192h6.879Zm6.972.001c.678 0 1.16.152 1.454.457.295.305.442.757.442 1.356v.501c0 .506-.103.904-.309 1.199-.206.295-.54.481-1.007.565l1.508 1.867c.03.03.04.073.025.132-.01.059-.06.089-.143.089h-1.135a.366.366 0 0 1-.157-.025.367.367 0 0 1-.089-.088L70.834 10.4h-2.85v1.754c0 .128-.063.192-.19.192h-.954c-.137 0-.201-.064-.201-.192v-5.71c0-.176.088-.265.265-.265h4.736v.001Zm-3.645 3.144h3.375c.3 0 .511-.064.634-.191.122-.128.186-.324.186-.59v-.368c0-.266-.064-.462-.186-.59-.123-.128-.335-.191-.634-.191h-3.262c-.079 0-.113.034-.113.107v1.823Zm8.602-3.145c.128 0 .192.065.192.193V9.89c0 .236.02.433.059.585a.78.78 0 0 0 .191.369.682.682 0 0 0 .36.191c.151.04.338.059.57.059h2.44c.232 0 .418-.02.57-.059a.762.762 0 0 0 .36-.191.77.77 0 0 0 .186-.37c.034-.156.054-.348.054-.584V6.373c0-.128.064-.192.192-.192h.963c.128 0 .192.064.192.192v3.65c0 .423-.044.781-.133 1.08a1.613 1.613 0 0 1-.427.723 1.73 1.73 0 0 1-.766.403 4.505 4.505 0 0 1-1.14.123h-2.54c-.448 0-.826-.04-1.135-.123a1.744 1.744 0 0 1-.762-.403 1.668 1.668 0 0 1-.432-.722c-.094-.295-.138-.659-.138-1.08V6.372c0-.128.07-.192.201-.192h.944Zm10.116 0c.127 0 .24.01.334.025.093.02.177.05.246.104a.84.84 0 0 1 .191.201c.055.083.113.196.172.339l1.833 4.23a.122.122 0 0 0 .123.079h.107a.122.122 0 0 0 .123-.079l1.833-4.23a2.14 2.14 0 0 1 .171-.339.671.671 0 0 1 .432-.305c.095-.019.202-.024.33-.024h.943c.305 0 .511.069.62.206.107.138.157.374.157.708v5.06c0 .128-.07.192-.202.192h-.899c-.128 0-.192-.064-.192-.192V7.552c0-.059-.024-.088-.069-.088h-.078c-.06 0-.099.024-.113.069l-1.779 3.95a2.51 2.51 0 0 1-.216.402 1.462 1.462 0 0 1-.236.27.78.78 0 0 1-.29.153c-.107.03-.235.044-.383.044h-.423c-.147 0-.275-.015-.383-.044a.719.719 0 0 1-.29-.152 1.163 1.163 0 0 1-.236-.27 2.34 2.34 0 0 1-.216-.403l-1.778-3.95c-.02-.05-.054-.07-.113-.07h-.079c-.049 0-.069.03-.069.089v4.603c0 .128-.064.192-.192.192h-.899c-.137 0-.201-.064-.201-.192v-5.06c0-.334.054-.57.157-.708.108-.137.315-.206.624-.206h.939Z"/>
    <path fill="#F70" d="M27.365 14.174c.083 0 .152.006.206.01a.37.37 0 0 1 .147.044.47.47 0 0 1 .118.094c.04.039.084.093.128.157l1.936 2.54c.015.025.034.034.07.034h.048c.03 0 .04-.019.04-.054v-2.717c0-.079.039-.113.113-.113h.545c.079 0 .113.04.113.113v2.987c0 .211-.04.354-.113.427-.079.074-.196.113-.354.113h-.447c-.079 0-.147-.005-.201-.01a.391.391 0 0 1-.266-.132 1.988 1.988 0 0 1-.137-.162l-1.94-2.54a.085.085 0 0 0-.07-.035h-.049c-.03 0-.04.02-.04.055V17.7c0 .08-.039.113-.112.113h-.546c-.078 0-.118-.039-.118-.113v-2.986c0-.211.04-.354.113-.428.079-.073.197-.113.354-.113h.462Zm7.713 0c.265 0 .486.025.673.074.187.049.34.128.452.24a.89.89 0 0 1 .25.424c.055.171.08.383.08.633v.894c0 .25-.025.462-.08.639a.969.969 0 0 1-.25.427 1.046 1.046 0 0 1-.452.236 2.684 2.684 0 0 1-.673.073h-1.611c-.265 0-.486-.024-.673-.073a1.07 1.07 0 0 1-.452-.236.93.93 0 0 1-.256-.427 2.195 2.195 0 0 1-.079-.639v-.894c0-.25.025-.461.08-.633a.946.946 0 0 1 .255-.423c.118-.108.265-.192.452-.241.182-.05.408-.074.673-.074h1.611Zm-2.27 2.211c0 .138.01.25.035.34a.467.467 0 0 0 .113.22.416.416 0 0 0 .21.113c.09.024.202.034.335.034h1.547c.138 0 .246-.01.335-.034a.456.456 0 0 0 .21-.113.472.472 0 0 0 .114-.22c.024-.094.034-.207.034-.34v-.78c0-.138-.01-.251-.034-.34a.466.466 0 0 0-.113-.22.416.416 0 0 0-.211-.114 1.298 1.298 0 0 0-.335-.034h-1.547c-.137 0-.246.01-.334.034a.456.456 0 0 0-.211.113.472.472 0 0 0-.113.221 1.365 1.365 0 0 0-.035.34v.78Zm5.056-2.211c.034 0 .058.006.073.015.015.01.03.03.044.054l1.528 2.8c.01.025.03.035.064.035h.024c.025 0 .044-.01.06-.034l1.503-2.8c.019-.045.058-.07.118-.07h.683c.04 0 .069.01.073.035.01.024.005.049-.014.083l-1.71 3.13c-.089.161-.172.265-.256.319a.523.523 0 0 1-.29.079h-.3a.623.623 0 0 1-.334-.08c-.088-.053-.177-.157-.265-.319l-1.724-3.13a.115.115 0 0 1-.015-.082c.01-.025.034-.035.079-.035h.658Zm6.445 0a.64.64 0 0 1 .334.08c.089.053.177.157.266.313l1.724 3.13a.11.11 0 0 1 .015.083c-.01.025-.035.034-.074.034h-.663c-.059 0-.098-.024-.118-.069l-.369-.673h-2.446l-.359.673a.128.128 0 0 1-.118.07h-.678c-.044 0-.074-.01-.079-.035a.107.107 0 0 1 .015-.083l1.71-3.13c.089-.157.172-.26.256-.314a.523.523 0 0 1 .29-.079h.295-.001Zm-1.007 2.3h1.793l-.83-1.523a.064.064 0 0 0-.059-.034h-.03a.064.064 0 0 0-.058.034l-.816 1.523ZM10.636 1.49c.06 0 .113.014.168.043l8.818 5.09a.328.328 0 0 1 .167.285v10.18a.327.327 0 0 1-.167.284l-8.819 5.094a.344.344 0 0 1-.334 0l-8.814-5.09a.328.328 0 0 1-.167-.284V6.907c0-.118.064-.226.167-.285l8.814-5.09a.337.337 0 0 1 .167-.043m0-1.489c-.314 0-.628.083-.909.246L.91 5.336A1.82 1.82 0 0 0 0 6.908v10.18c0 .648.349 1.247.909 1.576l8.818 5.09a1.813 1.813 0 0 0 1.818 0l8.819-5.09c.565-.324.909-.924.909-1.577V6.907c0-.648-.349-1.247-.91-1.576L11.546.24a1.813 1.813 0 0 0-.91-.24Z"/>
    <path fill="#F70" d="M8.386 6.785h-1.15a.201.201 0 0 0-.191.138l-3.71 10.154a.102.102 0 0 0 .099.138h1.15a.201.201 0 0 0 .191-.137l3.704-10.16c.03-.064-.02-.133-.093-.133Zm1.494 3.94c-.034-.088-.162-.088-.192 0l-.6 1.641a.234.234 0 0 0 0 .143l1.671 4.574c.03.083.108.138.192.138h1.15a.102.102 0 0 0 .098-.138l-2.32-6.357Zm.52-3.94H9.252a.201.201 0 0 0-.192.138L5.355 17.077a.102.102 0 0 0 .098.138h1.15a.201.201 0 0 0 .192-.137l3.704-10.16c.024-.064-.025-.133-.098-.133Zm.487 1.175c-.034-.089-.162-.089-.192 0l-.599 1.64a.235.235 0 0 0 0 .143l2.678 7.335c.03.083.108.138.191.138h1.15c.074 0 .123-.07.098-.138L10.888 7.96h-.001Zm6.951-1.175h-1.15a.201.201 0 0 0-.191.138l-2.682 7.335a.234.234 0 0 0 0 .142l.6 1.641c.034.089.162.089.191 0l3.326-9.118a.101.101 0 0 0-.094-.137Zm-4.431 6.49c.034.089.162.089.192 0l2.318-6.352a.102.102 0 0 0-.098-.138h-1.15a.201.201 0 0 0-.191.138l-1.67 4.574a.233.233 0 0 0 0 .143l.598 1.635Z"/>
  </g>
  <defs>
    <clipPath id="arbitrum-nova-dark_svg__a">
      <path fill="#fff" d="M0 0h95v24H0z"/>
    </clipPath>
  </defs>
</svg>
